X:1
T:073 - Um Grande Amigo
T:Letra: Charles William Fry (1837-1882)
T:Tradução: Stuart Edmund McNair (1867-1959)
T:Música: Ira David Sankey (1840-1908)
M:6/8
L:1/8
Q:1/4=115
K:F
V:1
(F/A/) | "F"c2c d2c | cA2-A2F | "Bb"G2F F2D | "F" C3 (F2G) | A2A A2A | d2c A2F | "C"G3 G3 | z3 (F2A) | "F" c2c d2c | cA2-A2F | "Bb" G2F F2D | "F" C3 (F2G) | A2A "Dm"G2F | "Gm"G2G "C"F2E | "F" F3 F3 |: z3 z F2 |"Bb" F2B B2B | Bd2-d2d | "F" d2c c2A | c3 (A2G) | F2F F2F | d2c A2F | "C"G6 | z3 (F2A) | "F"c2c d2c | cA2-A2F | "Bb"G2F F2D | "F" C3 (F2G) | A2A "Dm"G2F | "Gm"G2G "C"F2E | "F"F6 :|z3 z2|]
w: 1.~A_chei um gran-dea-mi-go,_ Je-sus, o Sal-va-dor, Que_ com a-mor me guar-da ca-da dia;_ Fi_el é seu cui-da-do,_ Cons-tan-teo seu a-mor E_ sem li-mi-tea su-a sim-pa-tia._ E ain-dao mais no-tá-vel_ É que por mim mor-reu E_ meus pe-ca-dos to-dos ex-pi-ou; As_sim me re-go-zi-jo_ Nas bên-çãos que me deu; Sim,_ sei que Je-sus Cris-to me sal-vou.     
w: 2.Por_ es-te gran-dea-mi-go_ De-se-joa-qui vi-ver, Com_ e-le ter cons-tan-te co-mu-nhão,_ Ser_ví-lo fi-el-men-te,_  E~as-sim lhe dar pra-zer, Fi_can-do sem-prea E-leem su-jei-ção._ Nos seus ca-mi-nhos san-tos_ Es-pe-roa-qui se-guir E_ seu a-mor a to-dos de-mons-trar, Por_que~E-le do pe-ca-do_ Me vei-o re-di-mir E_ por a-mor mor-reu em meu lu-gar.  
w: 3.A_ ho-ra vem che-gan-do,_ A Bí-blia no-lo diz, Em_ que Je-sus ao mun-do vol-ta-rá._ Oh,_ que mo-men-toa-le-gre,_ Que di-a tão fe-liz, O_ dia em que vol-tar a-qui se-rá!_ En-tão com e-le sem-pre,_ Nos céus, eu fi-ca-rei, Já_ li-vre do pe-ca-do, má-goa~e dor; O_ seu a-ma-do ros-to_ Na gló-ria~a-li ve-rei, E_ go-za-rei das bên-çãos do Se-nhor.           				                    
w: ||||||||||||||||(Coro)~Je-sus é meu a-mi-go,_    Meu gui-a, meu Se-nhor,    Meu_ pro-te-tor, sem ou-tro~ha-ver i-gual. Por_ mim so-freu a mor-te,_     Por mim, um pe-ca-dor,    E a-go-ra, vi-vo, guar-da-me do mal.  
W: 
W: 
W:1. Achei um grande amigo,
W: Jesus, o Salvador,
W: Que com amor me guarda cada dia;
W: Fiel é seu cuidado,
W: Constante o seu amor
W: E sem limite a sua simpatia.
W: E ainda o mais notável
W: É que por mim morreu
W: E meus pecados todos expiou;
W: Assim me regozijo
W: Nas bênçãos que me deu;
W: Sim, sei que Jesus Cristo me salvou.
W: 
W: 	  (Estribilho)
W:    Jesus é meu amigo,
W:    Meu guia, meu Senhor,
W:    Meu protetor, sem outro haver igual.
W:    Por mim sofreu a morte, 
W:    Por mim, um pecador,
W:    E agora, vivo, guarda-me do mal.
W: 
W: 
W:
W:2. Por este grande amigo
W: Desejo aqui viver,
W: Com ele ter constante comunhão,
W: Serví-lo fielmente, 
W: E assim lhe dar prazer,
W: Ficando sempre a Ele em sujeição.
W: Nos seus caminhos santos
W: Espero aqui seguir
W: E seu amor a todos demonstrar,
W: Porque ele do pecado
W: Me veio redimir
W: E por amor morreu em meu lugar.
W: 
W:3. A hora vem chegando,
W: A Bíblia no-lo diz,
W: Em que Jesus ao mundo voltará.
W: Oh, que momento alegre,
W: Que dia tão feliz,
W: O dia em que voltar aqui será!
W: Então com ele sempre,
W: Nos céus, eu ficarei,
W: Já livre do pecado, mágoa e dor;
W: O seu amado rosto
W: Na glória ali verei,
W: E gozarei das bênçãos do Senhor.
W: 
W: 





%wordsfont Times-Roman 13.0
%vocalfont Times-Roman 13.0
